svg/OSM-icons/shop #ac39ac °ffffff !label=enshops,deLäden/29049;shop=erotic;!name=;[shop];!label=enerotic,deErotik.svg

<svg xmlns="http://www.w3.org/2000/svg" viewBox="0 0 580 580" enable-background="new 0 0 580 580"><path fill="#111" stroke="#eee" stroke-width="3.408" d="m66.28 1.768c-41.34 0-64.57 21.371-64.57 65.04v450.12c0 40.844 20.895 62.23 62.19 62.23h452.02c41.31 0 62.23-20.315 62.23-62.23v-450.12c0-42.602-20.923-65.04-63.52-65.04-.003 0-448.5-.143-448.35 0z"/><g fill="#fff"><path d="m472.5 410h-365.01c-39.975 0-72.5-32.522-72.5-72.5v-95.01c0-39.975 32.521-72.5 72.5-72.5h365.01c39.974 0 72.5 32.521 72.5 72.5v95.01c0 39.974-32.522 72.5-72.5 72.5m-365.01-228c-33.36 0-60.5 27.14-60.5 60.5v95.01c0 33.36 27.14 60.5 60.5 60.5h365.01c33.36 0 60.5-27.14 60.5-60.5v-95.01c0-33.36-27.14-60.5-60.5-60.5h-365.01"/><path d="m73.21 367.61l53.05-80.999-48.07-74.22h36.635l31.13 49.869 30.494-49.869h36.32l-48.28 75.39 53.05 79.83h-37.799l-34.411-53.682-34.517 53.682h-37.588"/><path d="m217.84 367.61l53.05-80.999-48.07-74.22h36.635l31.13 49.869 30.494-49.869h36.32l-48.28 75.39 53.05 79.83h-37.8l-34.411-53.682-34.518 53.682h-37.587"/><path d="m362.48 367.61l53.05-80.999-48.07-74.22h36.635l31.13 49.869 30.493-49.869h36.32l-48.28 75.39 53.05 79.83h-37.8l-34.411-53.682-34.517 53.682h-37.588"/></g></svg>

<?xml version="1.0" encoding="utf-8"?>
<!-- Generator: Adobe Illustrator 15.0.0, SVG Export Plug-In . SVG Version: 6.00 Build 0)  -->
<!DOCTYPE svg PUBLIC "-//W3C//DTD SVG 1.1//EN" "http://www.w3.org/Graphics/SVG/1.1/DTD/svg11.dtd">
<svg version="1.1" xmlns="http://www.w3.org/2000/svg" xmlns:xlink="http://www.w3.org/1999/xlink" x="0px" y="0px" width="580px"
	 height="580px" viewBox="0 0 580 580" enable-background="new 0 0 580 580" xml:space="preserve">
<g id="Layer_1">
	<g id="Layer_2">
		<g id="g1327">
			<path id="path1329" fill="#111111" stroke="#EEEEEE" stroke-width="3.408" d="M66.275,1.768
				c-41.335,0-64.571,21.371-64.571,65.036v450.123c0,40.844,20.895,62.229,62.192,62.229h452.024
				c41.307,0,62.229-20.315,62.229-62.229V66.804c0-42.602-20.923-65.036-63.521-65.036C514.625,1.768,66.133,1.625,66.275,1.768z"
				/>
		</g>
	</g>
</g>
<g id="Layer_2_1_">
	<g>
		<path fill="#FFFFFF" d="M472.504,410H107.496C67.521,410,35,377.478,35,337.504v-95.008C35,202.521,67.521,170,107.496,170
			h365.008C512.478,170,545,202.521,545,242.496v95.008C545,377.478,512.478,410,472.504,410z M107.496,182
			C74.138,182,47,209.138,47,242.496v95.008C47,370.861,74.138,398,107.496,398h365.008C505.861,398,533,370.861,533,337.504
			v-95.008C533,209.138,505.861,182,472.504,182H107.496z"/>
	</g>
	<g>
		<path fill="#FFFFFF" d="M73.209,367.61l53.046-80.999l-48.07-74.222h36.635l31.129,49.869l30.494-49.869h36.317l-48.282,75.387
			l53.046,79.834h-37.799l-34.411-53.682l-34.517,53.682H73.209z"/>
		<path fill="#FFFFFF" d="M217.842,367.61l53.046-80.999l-48.07-74.222h36.635l31.129,49.869l30.494-49.869h36.317l-48.282,75.387
			l53.047,79.834h-37.8l-34.411-53.682l-34.518,53.682H217.842z"/>
		<path fill="#FFFFFF" d="M362.475,367.61l53.046-80.999l-48.069-74.222h36.635l31.129,49.869l30.493-49.869h36.317l-48.281,75.387
			l53.046,79.834h-37.8l-34.411-53.682l-34.517,53.682H362.475z"/>
	</g>
</g>
</svg>
